X:126
T:Graces THO4.126, The
M:2/4
L:1/16
Z:vmp. Peter Dunk 2010/11.from a transcription by Fynn Titford-Mock 2007
B:Thompson's Compleat Collection of 200 Favourite Country Dances Volume IV.
Q:1/4=120
K:Bb
B2>c2B2>F2|d2Bd f2df|g2eg a2fa|b2b2 b4|\
bbBB ffFF|GGAA BBB,B,|CCDD EE=EE|F2F2 F4:|
|:c2>d2e2e2|(ed)(gf) (g3e/d/)|c2>d2e2e2|\
(ed)(gf) g3e/d/|B2cd efga|baba b2B2|
G2ec B2A2| B2B2B4::Bcdc BAGF|\
GABA GFED| EFGF EDCB,| F2F2F4:|
L:1/8
|:f2 dB|GBGE|g2 ec|AcAF|f2 dB|f2 b/g/b/g/|fDEF|B,2B,2:|
